X:363
T:B363-  Packington's Pound
S:(2nd/3)
Q:1/4=120
L:1/4
M:6/4
K:F dorian
C|F3/2G/AGEC|F3/2G/AG2G|A3/2B/cB3/2c/A|G3/2F/=EF2:|c|\
cedc2G|cedc2d|e3/2d/ce3/2d/c|=B3/2c/dc2G|\
A3/2B/cBGE|F3/2G/AG2G|A3/2B/cB3/2c/A|G3/2F/=EF2|]

